X:248
T:B248-  Joan's placket is torn
Q:1/4=120
L:1/4
M:6/4
K:G
d|B2BB3/2A/2G|A3/2B/2AA3/2d/2c|B3/2A/2BA3/2G/2F|\
(G3G2):|d|g2de2d|g2de2d|g2edBG|(A3A2)d|\
B2BB3/2A/2G|A3/2B/2AA3/2d/2c|B3/2A/2BA3/2G/2F|(G3G2)|]

